!!!!SEGMENT: pl-kk--kk-i-2--011-002_pacelli-asprilio--missa-ave-maris-stella-gloria.krn
!!!cenid: 16xx:1617
!!!COM: Pacelli, Asprilio
!!!COM-rismid: pe30009570
!!!CDT: 1570-1623/05/04
!!!CNT: Italian
!!!OPR: Missa Ave Maris Stella
!!!OTL: Gloria
!!!OMV: 002
!!!PDT:
!!!AGN: Sacred; Mass
!!!SMS-siglum: PL-Kk
!!!SMS-shelfmark: Kk.I.2
!!!SMS-shelfwork: 011-002 M
!!!NIFC-rismid: 300258027
!!!URL-scan: http://repozytorium.nifc.pl/skany/pl-kk-nut--i-2
!!!ONB-nifc: Części mszy: Kyrie, Gloria, Credo, Sanctus, Agnus Dei; skany: C: 0027-0028; A: 0127-0128; T: 0231-0232; B: 0329-0330;
!!!key: d:dor
**kern	**text	**kern	**text	**kern	**text	**kern	**text
*part4	*part4	*part3	*part3	*part2	*part2	*part1	*part1
*staff4	*staff4	*staff3	*staff3	*staff2	*staff2	*staff1	*staff1
*I"BASVS	*	*I"TENOR	*	*I"ALTVS	*	*I"DISCANTVS	*
*I'B	*	*I'T	*	*I'A	*	*I'S	*
*Ibass	*	*Itenor	*	*Ialto	*	*Isoprn	*
*ICvox	*	*ICvox	*	*ICvox	*	*ICvox	*
*clefF4	*	*clefC4	*	*clefC4	*	*clefC3	*
*k[]	*	*k[]	*	*k[]	*	*k[]	*
*d:dor	*	*d:dor	*	*d:dor	*	*d:dor	*
*M2/1	*	*M2/1	*	*M2/1	*	*M2/1	*
*met(C|)	*	*met(C|)	*	*met(C|)	*	*met(C|)	*
*all\right	*	*all\right	*	*all\right	*	*all\right	*
=1-	=1-	=1-	=1-	=1-	=1-	=1-	=1-
!LO:TX:t=P:problem:kreska pseudotaktowa	!	!	!	!LO:TX:t=P:problem:kreska pseudotaktowa	!	!	!
00r	.	2.D/	Et	00r	.	2r	.
.	.	.	.	.	.	1d	Et
!	!	!LO:TX:t=P:problem:kreska pseudotaktowa	!	!	!	!	!
.	.	4E/	.	.	.	.	.
.	.	4F/	.	.	.	.	.
.	.	4G/	.	.	.	.	.
.	.	1A/	.	.	.	4c/	.
!	!	!	!	!	!	!LO:TX:t=P:problem:kreska pseudotaktowa	!
.	.	.	.	.	.	4B/	.
=2-	=2-	=2-	=2-	=2-	=2-	=2-	=2-
.	.	.	.	.	.	2c/	.
!	!	!LO:TX:t=P:problem:kreska pseudotaktowa	!	!	!	!	!
.	.	2A/	in	.	.	2c/	in
*	*	*	*	*	*	*2\right	*
.	.	2G/	ter-	.	.	2d\	ter-
!	!	!	!	!	!	!LO:TX:t=P:problem:kreska pseudotaktowa	!
.	.	2E/	-ra	.	.	2e\	-ra
=3-	=3-	=3-	=3-	=3-	=3-	=3-	=3-
*	*	*	*	*lig	*	*	*
2.D/	ET	2D/	pax	1D	Et	2f,<\	pax
.	.	1d	Et	.	.	1f	Et
4E\	.	.	.	.	.	.	.
4F\	.	.	.	1.A	.	.	.
4G\	.	.	.	.	.	.	.
!	!	!LO:TX:b:t=P:problem:# below	!	!	!	!	!
1A\	.	4c#X\	.	.	.	4e\	.
!	!	!LO:TX:t=P:problem:kreska pseudotaktowa	!	!	!	!LO:TX:t=P:problem:kreska pseudotaktowa	!
.	.	4B\	.	.	.	4d\	.
*	*	*	*	*Xlig	*	*	*
=4-	=4-	=4-	=4-	=4-	=4-	=4-	=4-
*2\right	*	*2\right	*	*	*	*	*
!	!	!LO:TX:b:t=P:problem:# below	!	!	!	!	!
.	.	2c#X\	.	.	.	2e,<\	.
!LO:TX:t=P:problem:kreska pseudotaktowa	!	!	!	!LO:TX:t=P:problem:kreska pseudotaktowa	!	!	!
2A\	in	2c#\	in	2A/	in	2f\	in
*	*	*	*	*2\right	*	*	*
2G\	ter-	2d\	ter-	2B\	ter-	1.g	ter-
!	!	!LO:TX:t=P:problem:kreska pseudotaktowa	!	!	!	!	!
2E\	-ra	2e\	-ra	2G/	-ra	.	.
=5-	=5-	=5-	=5-	=5-	=5-	=5-	=5-
2D/	pax	2A/	pax	2.A/	pax	.	.
!LO:TX:t=P:problem:kreska pseudotaktowa	!	!	!	!	!	!LO:TX:t=P:problem:kreska pseudotaktowa	!
2D/	ho-	2d\	ho-	.	.	2f\	-ra
.	.	.	.	4B\	.	.	.
2C/	-mi-	2.G/	-mi-	2c\	.	2e\	pax
!	!	!	!	!LO:TX:t=P:problem:kreska pseudotaktowa	!	!	!
2BB/	-ni-	.	.	2d\	ho-	2g\	ho-
!	!	!LO:TX:t=P:problem:kreska pseudotaktowa	!	!	!	!	!
.	.	4F/	.	.	.	.	.
=6-	=6-	=6-	=6-	=6-	=6-	=6-	=6-
*	*	*	*	*lig	*	*	*
4C/	.	4E/	.	1c	-mi-	2g\	-mi-
4D/	.	4F/	.	.	.	.	.
4E/	.	4G/	.	.	.	2e\	-ni-
!LO:TX:t=P:problem:kreska pseudotaktowa	!	!LO:TX:t=P:problem:kreska pseudotaktowa	!	!	!	!	!
4C/	.	4A/	.	.	.	.	.
!	!	!	!	!	!	!LO:TX:t=P:problem:kreska pseudotaktowa	!
1G	-b(us)	4B\	.	1.B	.	1d	-bus
.	.	4cny\	.	.	.	.	.
.	.	1d\	.	.	.	.	.
*	*	*	*	*Xlig	*	*	*
=7-	=7-	=7-	=7-	=7-	=7-	=7-	=7-
0D	ho-	.	.	.	.	2r	.
*	*	*custos:D	*	*	*	*	*
!	!	!LO:LB:g=original	!	!	!	!	!
!	!	!LO:TX:t=P:problem:kreska pseudotaktowa	!	!	!	!	!
.	.	2D/	-ni-	4A/	.	2.d\	ho-
!	!	!	!	!LO:TX:t=P:problem:kreska pseudotaktowa	!	!	!
.	.	.	.	4G/	.	.	.
!	!	!LO:TX:t=P:problem:kreska pseudotaktowa	!	!	!	!	!
.	.	1A	-bus	2.A/	.	.	.
.	.	.	.	.	.	8c/L	.
.	.	.	.	.	.	8B/J	.
*	*	*	*	*	*	*custos:A	*
!	!	!	!	!	!	!LO:LB:g=original	!
!	!	!	!	!	!	!LO:TX:t=P:problem:kreska pseudotaktowa	!
.	.	.	.	.	.	2A/	.
.	.	.	.	4B\	.	.	.
=8-	=8-	=8-	=8-	=8-	=8-	=8-	=8-
2.E\	-mi-	2r	.	2c\	.	2.e\	-mi-
.	.	2E/	ho-	2c\	-ni-	.	.
8D/L	.	.	.	.	.	4f\	.
8C/J	.	.	.	.	.	.	.
2G\	.	2B\	-mi-	4B\	.	2g\	.
.	.	.	.	4A/	.	.	.
!	!	!	!	!	!	!LO:TX:t=P:problem:kreska pseudotaktowa	!
2G\	-ni-	2G/	-ni-	4B\	.	2d\	-ni-
.	.	.	.	4c\	.	.	.
=9-	=9-	=9-	=9-	=9-	=9-	=9-	=9-
*lig	*	*	*	*	*	*	*
!	!	!LO:TX:t=P:problem:kreska pseudotaktowa	!	!LO:TX:t=P:problem:kreska pseudotaktowa	!	!	!
1D	-bus	1A	-bus	1d	-bus	2d\	-bus
.	.	.	.	.	.	2A/	bo-
*	*	*	*	*	*	*lig	*
!	!	!	!	!LO:TX:t=P:problem:kreska pseudotaktowa	!	!	!
1E	.	1r	.	00r	.	1B	-nae
*Xlig	*	*	*	*	*	*	*
!LO:LB:g=original	!	!	!	!	!	!	!
=10-	=10-	=10-	=10-	=10-	=10-	=10-	=10-
!LO:TX:t=P:problem:kreska pseudotaktowa	!	!	!	!	!	!LO:TX:a:t=P:problem:# above	!
1r	.	2r	.	.	.	1c#X	.
!	!	!LO:TX:t=P:problem:przekreślona synkopowana wartość	!	!	!	!	!
.	.	1A	bo-	.	.	.	.
*	*	*	*	*	*	*Xlig	*
1D	bo-	.	.	.	.	2d\	Vo-
!	!	!LO:TX:t=P:problem:przekreślona synkopowana wartość	!	!	!	!	!
.	.	1B\	-bae	.	.	2f\	-lun-
=11-	=11-	=11-	=11-	=11-	=11-	=11-	=11-
*lig	*	*	*	*	*	*	*
1E	-nae	.	.	.	.	1e	-ta-
!	!	!LO:TX:t=P:problem:przekreślona synkopowana wartość	!	!	!	!	!
.	.	1c	vo-	.	.	.	.
!	!	!	!	!	!	!LO:TX:t=P:problem:kreska pseudotaktowa	!
1F	.	.	.	1A	bo-	1A	-tis
!	!	!LO:TX:t=P:problem:kreska pseudotaktowa	!	!	!	!	!
.	.	2d\	-lun-	.	.	.	.
*Xlig	*	*	*	*	*	*	*
=12-	=12-	=12-	=12-	=12-	=12-	=12-	=12-
!	!	!	!	!LO:TX:t=P:problem:kreska pseudotaktowa	!	!	!
2G\	vo-	2B\	-ta-	1D	-nae	1r	.
2B\	-lun-	1d	.	.	.	.	.
*	*	*	*	*custos:E	*	*	*
!	!	!	!	!LO:LB:g=original	!	!	!
1A	-ta-	.	.	2.E/	Vo-	2r	.
!	!	!LO:TX:b:t=P:problem:# below	!	!	!	!LO:TX:t=P:problem:kreska pseudotaktowa	!
.	.	2c#X\	.	.	.	2A/	bo-
.	.	.	.	4F/	.	.	.
=13-	=13-	=13-	=13-	=13-	=13-	=13-	=13-
!	!	!LO:TX:t=P:problem:kreska pseudotaktowa	!	!	!	!	!
2.G\	.	1d	-tis	1.G	.	2B/	-nae
.	.	.	.	.	.	2B/	vo-
!LO:TX:t=P:problem:kreska pseudotaktowa	!	!	!	!	!	!	!
4F\	.	.	.	.	.	.	.
2E\	.	1r	.	.	.	2cny/	-lun-
!	!	!	!	!LO:TX:t=P:problem:kreska pseudotaktowa	!	!	!
2D/	.	.	.	2F/	-lun-	1d\	-ta-
=14-	=14-	=14-	=14-	=14-	=14-	=14-	=14-
2A\	-tis.	0A	Lau-	1E	-ta-	.	.
!	!	!	!	!	!	!LO:TX:t=P:problem:kreska pseudotaktowa	!
2AA/	Lau-	.	.	.	.	2c#X/	.
!	!	!	!	!LO:TX:t=P:problem:kreska pseudotaktowa	!	!	!
1.D	-da-	.	.	1D	-tis.	1d,<	-tis.
=15-	=15-	=15-	=15-	=15-	=15-	=15-	=15-
.	.	2d\	-da-	1A	Lau-	2f\	Lau-
!LO:TX:b:t=P:problem:# below	!	!LO:TX:t=P:problem:kreska pseudotaktowa	!	!	!	!	!
4C#X/	.	2A/	-mus	.	.	4e\	.
!LO:TX:t=P:problem:kreska pseudotaktowa	!	!	!	!	!	!	!
4BB/	.	.	.	.	.	4d\	.
2C#/	.	2r	.	2A/	-da-	2e\	-da-
!	!	!	!	!	!	!LO:TX:t=P:problem:kreska pseudotaktowa	!
!	!	!	!	!	!	!LO:TX:b:t=P:problem:# below	!
2D/	-mus	4d\	te	2A/	-mus	2f#X\	-mus
!	!	!LO:TX:t=P:problem:kreska pseudotaktowa	!	!	!	!	!
.	.	4cny\	.	.	.	.	.
=16-	=16-	=16-	=16-	=16-	=16-	=16-	=16-
!	!	!	!	!LO:TX:b:t=P:problem:# below	!	!	!
2GG/	te.	4B\	.	1B#X	te.	2g\	te.
.	.	4A/	.	.	.	.	.
4G\	Be-	2G/	.	.	.	2.d\	Be-
!LO:TX:t=P:problem:kreska pseudotaktowa	!	!	!	!	!	!	!
4G\	-ne-	.	.	.	.	.	.
2G\	-di-	2.d\	Be-	4Bny\	Be-	.	.
.	.	.	.	4B\	-ne-	4g\	-ne-
*	*	*	*	*	*	*custos:d	*
!	!	!	!	!	!	!LO:LB:g=original	!
!LO:TX:b:t=P:problem:# below	!	!	!	!	!	!LO:TX:t=P:problem:kreska pseudotaktowa	!
1F#X\	-ci-	.	.	2.A/	-di-	2d\	-di-
!	!	!LO:TX:t=P:problem:kreska pseudotaktowa	!	!	!	!	!
.	.	4d\	-ne-	.	.	.	.
=17-	=17-	=17-	=17-	=17-	=17-	=17-	=17-
.	.	2d\	-di-	.	.	2a\	-ci-
.	.	.	.	4A/	-ci-	.	.
*	*	*custos:d	*	*	*	*	*
!LO:TX:t=P:problem:kreska pseudotaktowa	!	!LO:LB:g=original	!	!	!	!	!
2G\	-mus	4d\	-ci-	2B\	-mus	2.g\	-mus
!	!	!LO:TX:t=P:problem:kreska pseudotaktowa	!	!	!	!	!
.	.	4d\	-mus	.	.	.	.
!	!	!	!	!LO:TX:t=P:problem:kreska pseudotaktowa	!	!	!
2Cny,</	te.	1c	te.	1c	te.	.	.
.	.	.	.	.	.	4fny\	.
!	!	!	!	!	!	!LO:TX:t=P:problem:kreska pseudotaktowa	!
1C/	A-	.	.	.	.	2e\	te.
=18-	=18-	=18-	=18-	=18-	=18-	=18-	=18-
.	.	2c\	A-	1r	.	2e\	A-
!	!	!LO:TX:t=P:problem:kreska pseudotaktowa	!	!	!	!	!
4BB-X/	-do-	2G/	-do-	.	.	4d\	-do-
4AA/	.	.	.	.	.	4cny/	.
2BB-/	-ra-	4G/	-ra-	2r	.	2d\	-ra-
.	.	4d\	-mus	.	.	.	.
!LO:TX:t=P:problem:kreska pseudotaktowa	!	!LO:TX:t=P:problem:kreska pseudotaktowa	!	!LO:TX:t=P:problem:kreska pseudotaktowa	!	!LO:TX:t=P:problem:kreska pseudotaktowa	!
2C/	-mus	2c\	te.	2c\	Glo-	2e\	-mus
*custos:FF	*	*	*	*	*	*	*
!LO:PB:g=original	!	!	!	!	!	!	!
=19-	=19-	=19-	=19-	=19-	=19-	=19-	=19-
2FF/	te.	2c\	Glo-	4c\	-ri-	1f	te.
.	.	.	.	4B\	.	.	.
1Fny	Glo-	4c\	-ri-	4A/	.	.	.
.	.	4c\	-fi-	4G/	.	.	.
.	.	1.c	-ca-	2A/	.	2f\	Glo-
!	!	!	!	!LO:TX:t=P:problem:kreska pseudotaktowa	!	!LO:TX:t=P:problem:kreska pseudotaktowa:między nutą a kropką	!
4E\	-ri-	.	.	2c\	-fi-	2.g\	-ri-
!LO:TX:t=P:problem:kreska pseudotaktowa	!	!	!	!	!	!	!
4D/	-fi-	.	.	.	.	.	.
=20-	=20-	=20-	=20-	=20-	=20-	=20-	=20-
2E\	-ca-	.	.	2c\	-ca-	.	.
.	.	.	.	.	.	4g\	-fi-
!	!	!LO:TX:t=P:problem:kreska pseudotaktowa	!	!	!	!	!
2F\	-mus	2c\	-mus	2A/	-mus	4f\	-ca-
.	.	.	.	.	.	4f\	-mus
!LO:TX:t=P:problem:kreska pseudotaktowa	!	!LO:TX:t=P:problem:kreska pseudotaktowa	!	!LO:TX:t=P:problem:kreska pseudotaktowa	!	!LO:TX:t=P:problem:kreska pseudotaktowa	!
0C	te.	0c,<	te.	0G	te.	0e,<	te.
=21-	=21-	=21-	=21-	=21-	=21-	=21-	=21-
.	.	.	.	.	.	.	.
1.G	Gra-	2B\	Gra-	1.B	Gra-	1.g	Gra-
.	.	2d\	-ti-	.	.	.	.
=22-	=22-	=22-	=22-	=22-	=22-	=22-	=22-
!	!	!LO:TX:t=P:problem:kreska pseudotaktowa	!	!	!	!	!
.	.	0d	-as	.	.	.	.
*	*	*	*	*custos:B	*	*	*
!	!	!	!	!LO:LB:g=original	!	!	!
!	!	!	!	!LO:TX:t=P:problem:kreska pseudotaktowa	!	!	!
2G\	-ti-	.	.	2B\	-ti-	2g\	-ti-
!LO:TX:t=P:problem:kreska pseudotaktowa	!	!	!	!	!	!	!
0D	-as	.	.	1A	-as	1.f	-as
=23-	=23-	=23-	=23-	=23-	=23-	=23-	=23-
.	.	1.A	a-	1.d	a-	.	.
.	.	.	.	.	.	4e\	.
!	!	!	!	!	!	!LO:TX:t=P:problem:kreska pseudotaktowa	!
.	.	.	.	.	.	4d\	.
1.A	a-	.	.	.	.	1e,<	.
!	!	!LO:TX:t=P:problem:kreska pseudotaktowa	!	!LO:TX:t=P:problem:kreska pseudotaktowa	!	!	!
.	.	2c\	-gi-	2c\	-gi-	.	.
=24-	=24-	=24-	=24-	=24-	=24-	=24-	=24-
*	*	*	*	*lig	*	*	*
.	.	2.c\	-mus	1c	-mus	1.e	a-
2A\	-gi-	.	.	.	.	.	.
.	.	4d\	.	.	.	.	.
0E	-mus	1e	ti-	1B	.	.	.
.	.	.	.	.	.	2g\	-gi-
*	*	*	*	*Xlig	*	*	*
=25-	=25-	=25-	=25-	=25-	=25-	=25-	=25-
.	.	2e\	-bi	1e	ti-	1.g	-mus
!	!	!LO:TX:t=P:problem:kreska pseudotaktowa	!	!	!	!	!
.	.	2r	.	.	.	.	.
!LO:TX:t=P:problem:kreska pseudotaktowa	!	!	!	!LO:TX:t=P:problem:kreska pseudotaktowa	!	!	!
1G	ti-	1r	.	1d	-bi,	.	.
.	.	.	.	.	.	1d\	ti-
=26-	=26-	=26-	=26-	=26-	=26-	=26-	=26-
2D/	-bi	1A	pro-	2r	.	.	.
!	!	!	!	!	!	!LO:TX:t=P:problem:kreska pseudotaktowa	!
1D	p(ro)-	.	.	1A	p(ro)-	2d\	-bi
.	.	2A/	-pter	.	.	0r	.
!LO:TX:b:t=P:problem:# below	!	!	!	!	!	!	!
!LO:TX:t=P:problem:kreska pseudotaktowa	!	!	!	!LO:TX:t=P:problem:kreska pseudotaktowa	!	!	!
2C#X/	-pter	1A/	mag-	2A/	-pter	.	.
=27-	=27-	=27-	=27-	=27-	=27-	=27-	=27-
1D	mag-	.	.	1F	mag-	.	.
!	!	!LO:TX:t=P:problem:kreska pseudotaktowa	!	!	!	!	!
.	.	2A/	-na(m)	.	.	.	.
!	!	!	!	!	!	!LO:TX:t=P:problem:kreska pseudotaktowa	!
1AA	-na(m)	1.A	glo-	1E	-na(m)	1r	.
=28-	=28-	=28-	=28-	=28-	=28-	=28-	=28-
*	*	*	*	*lig	*	*	*
2.D/	glo-	.	.	1F	glo-	2r	.
*	*	*custos:A	*	*	*	*	*
!	!	!LO:PB:g=original	!	!	!	!	!
!	!	!LO:TX:t=P:problem:kreska pseudotaktowa	!	!	!	!	!
.	.	2A/	-ri-	.	.	2A/	pro-
!LO:TX:t=P:problem:kreska pseudotaktowa	!	!	!	!	!	!	!
4Cny/	-ri-	.	.	.	.	.	.
*	*	*	*	*	*	*custos:B	*
!	!	!	!	!	!	!LO:LB:g=original	!
2BBny/	-am	1D	-am	1.G	.	1B	-pter
!LO:TX:t=P:problem:kreska pseudotaktowa	!	!	!	!	!	!	!
2GG/	tu-	.	.	.	.	.	.
*	*	*	*	*Xlig	*	*	*
=29-	=29-	=29-	=29-	=29-	=29-	=29-	=29-
4C/	.	1E	tu-	.	.	1c	ma-
4BB/	.	.	.	.	.	.	.
4AA/	.	.	.	2A/	-ri-	.	.
!LO:TX:t=P:problem:kreska pseudotaktowa	!	!	!	!	!	!	!
4GG/	.	.	.	.	.	.	.
!	!	!LO:TX:t=P:problem:kreska pseudotaktowa	!	!LO:TX:t=P:problem:kreska pseudotaktowa	!	!	!
4FF/	.	1F	-am	1A	-am	2c/	-gna(m)
4GG/	.	.	.	.	.	.	.
4AA/	.	.	.	.	.	2.c/	glo-
!LO:TX:t=P:problem:kreska pseudotaktowa	!	!	!	!	!	!	!
4BB/	.	.	.	.	.	.	.
*custos:CC	*	*	*	*	*	*	*
!LO:LB:g=original	!	!	!	!	!	!	!
=30-	=30-	=30-	=30-	=30-	=30-	=30-	=30-
1C	.	1r	.	1G	tu-	.	.
.	.	.	.	.	.	4G/	-ri-
.	.	.	.	.	.	1c	-am
!LO:TX:t=P:problem:kreska pseudotaktowa	!	!	!	!	!	!	!
1GG	.	2.G/	Do-	2G/	-am.	.	.
!	!	!	!	!	!	!LO:TX:t=P:problem:kreska pseudotaktowa	!
.	.	.	.	2.G/	Do-	2B/	tu-
!	!	!LO:TX:t=P:problem:kreska pseudotaktowa	!	!	!	!	!
.	.	4G/	-mi-	.	.	.	.
=31-	=31-	=31-	=31-	=31-	=31-	=31-	=31-
2C/	-am	2G/	-ne	.	.	2c/	-am.
.	.	.	.	4G/	-mi-	.	.
2.C/	Do-	1c	De-	2G/	-ne	2.e\	Do-
.	.	.	.	1.c	De-	.	.
4C/	-mi-	.	.	.	.	4e\	-mi-
!LO:TX:t=P:problem:kreska pseudotaktowa	!	!LO:TX:t=P:problem:kreska pseudotaktowa	!	!	!	!LO:TX:t=P:problem:kreska pseudotaktowa	!
2C/	-ne	2e\	-us	.	.	2g\	-ne
=32-	=32-	=32-	=32-	=32-	=32-	=32-	=32-
1.G	De-	1d	Rex	.	.	1.g	De-
.	.	.	.	4B\	.	.	.
!	!	!	!	!LO:TX:t=P:problem:kreska pseudotaktowa	!	!	!
.	.	.	.	4A/	.	.	.
.	.	2B\	cae-	2B\	.	.	.
!	!	!	!	!LO:TX:t=P:problem:kreska pseudotaktowa	!	!	!
2E\	-us	4e\	-le-	2B\	-us	2g\	-us
!	!	!LO:TX:t=P:problem:kreska pseudotaktowa	!	!	!	!	!
.	.	4d\	.	.	.	.	.
=33-	=33-	=33-	=33-	=33-	=33-	=33-	=33-
2A\	Rex	4c\	.	2c\	Rex	2e\	Rex
.	.	4A/	.	.	.	.	.
!LO:TX:t=P:problem:kreska pseudotaktowa	!	!	!	!LO:TX:t=P:problem:kreska pseudotaktowa	!	!LO:TX:t=P:problem:kreska pseudotaktowa	!
2D/	coe-	4d\	.	2A/	coe-	2f\	cae-
!	!	!LO:TX:t=P:problem:kreska pseudotaktowa	!	!	!	!	!
.	.	4c\	.	.	.	.	.
*	*	*	*	*custos:G	*	*	*
!	!	!	!	!LO:PB:g=original	!	!	!
2.E\	-le-	4B\	.	0G	-le-	1e	-le-
.	.	8A/L	.	.	.	.	.
.	.	8G/J	.	.	.	.	.
.	.	2.c\	.	.	.	.	.
4F\	.	.	.	.	.	.	.
=34-	=34-	=34-	=34-	=34-	=34-	=34-	=34-
1G	.	.	.	.	.	2d\	-ſtis
.	.	8B\L	.	.	.	.	.
.	.	8A\J	.	.	.	.	.
.	.	2B\	.	.	.	1d	De-
!LO:TX:t=P:problem:kreska pseudotaktowa	!	!LO:TX:t=P:problem:kreska pseudotaktowa	!	!	!	!	!
1D	-ſtis	1A	-ſtis	2F#X/	-ſtis	.	.
!	!	!	!	!	!	!LO:TX:t=P:problem:kreska pseudotaktowa	!
.	.	.	.	1A/	De-	2d\	-us
=35-	=35-	=35-	=35-	=35-	=35-	=35-	=35-
2r	.	1r	.	.	.	2f\	Pa-
!	!	!	!	!LO:TX:t=P:problem:kreska pseudotaktowa	!	!LO:TX:t=P:problem:kreska pseudotaktowa	!
1AA	De-	.	.	2A/	-us	2c/	-ter
.	.	2r	.	1c	Pa-	0r	.
!LO:TX:t=P:problem:kreska pseudotaktowa	!	!	!	!	!	!	!
2AA/	-us	1E/	De-	.	.	.	.
=36-	=36-	=36-	=36-	=36-	=36-	=36-	=36-
1C	Pa-	.	.	2.G/	-ter	.	.
!	!	!LO:TX:t=P:problem:kreska pseudotaktowa	!	!	!	!	!
.	.	2E/	-us	.	.	.	.
!	!	!	!	!LO:TX:t=P:problem:kreska pseudotaktowa	!	!	!
.	.	.	.	4A/	.	.	.
2.GG/	-ter	2G/	Pa-	4B\	.	1r	.
.	.	.	.	4c\	.	.	.
.	.	4G/	-ter	1d\	.	.	.
!LO:TX:t=P:problem:kreska pseudotaktowa	!	!	!	!	!	!	!
4AA/	.	4G/	om-	.	.	.	.
=37-	=37-	=37-	=37-	=37-	=37-	=37-	=37-
2BB/	.	2G/	-ni-	.	.	2r	.
!	!	!LO:TX:t=P:problem:kreska pseudotaktowa	!	!	!	!LO:TX:t=P:problem:kreska pseudotaktowa:między nutą a kropką	!
2C/	o-	2E/	-po-	4c\	.	2.e\	o-
.	.	.	.	4B\	.	.	.
*lig	*	*	*	*	*	*	*
1D	-mni-	2F/	-tens	1.A	.	.	.
.	.	.	.	.	.	4d\	.
*	*	*custos:A	*	*	*	*	*
!	!	!LO:LB:g=original	!	!	!	!	!
.	.	2.A/	Do-	.	.	1d\	-mni-
=38-	=38-	=38-	=38-	=38-	=38-	=38-	=38-
1.AA	.	.	.	.	.	.	.
.	.	4B\	.	.	.	.	.
!	!	!LO:TX:a:t=P:problem:# above	!	!LO:TX:t=P:problem:kreska pseudotaktowa	!	!	!
.	.	4c#X\	.	2A/	o-	4c/	-po-
.	.	4d\	.	.	.	4B/	.
!	!	!LO:TX:t=P:problem:kreska pseudotaktowa	!	!	!	!LO:TX:b:t=P:problem:# below	!
!	!	!	!	!	!	!LO:TX:t=P:problem:kreska pseudotaktowa	!
.	.	2e\	.	2.A/	-mni-	2c#X/	-tens.
*Xlig	*	*	*	*	*	*custos:A	*
!LO:TX:t=P:problem:kreska pseudotaktowa	!	!	!	!	!	!LO:PB:g=original	!
2AA/	-po-	2A/	-mi-	.	.	1A/	Do-
.	.	.	.	4G/	.	.	.
=39-	=39-	=39-	=39-	=39-	=39-	=39-	=39-
2DD/	-tens	2A/	-ne	2F#X/	.	.	.
!LO:TX:t=P:problem:kreska pseudotaktowa	!	!	!	!	!	!LO:TX:t=P:problem:kreska pseudotaktowa	!
2D/	Do-	4d\	fi-	2F#/	-po-	2A/	-mi-
!	!	!LO:TX:t=P:problem:kreska pseudotaktowa	!	!	!	!	!
.	.	4cny\	.	.	.	.	.
!	!	!	!	!LO:TX:t=P:problem:kreska pseudotaktowa	!	!	!
2E\	-mi-	4B\	.	1G	-tens.	1e	-ne
.	.	8A/L	.	.	.	.	.
.	.	8B/J	.	.	.	.	.
*custos:C	*	*	*	*	*	*	*
!LO:LB:g=original	!	!	!	!	!	!	!
!LO:TX:t=P:problem:kreska pseudotaktowa	!	!	!	!	!	!	!
2C/	-ne	4c\	.	.	.	.	.
!	!	!LO:TX:t=P:problem:kreska pseudotaktowa	!	!	!	!	!
.	.	4B\	.	.	.	.	.
=40-	=40-	=40-	=40-	=40-	=40-	=40-	=40-
2.D/	fi-	4A/	.	2r	.	1.f	fi-
.	.	4G/	.	.	.	.	.
.	.	1A	.	1D	Do-	.	.
4E\	.	.	.	.	.	.	.
2F\	-li	.	.	.	.	.	.
!	!	!LO:TX:t=P:problem:kreska pseudotaktowa	!	!LO:TX:t=P:problem:kreska pseudotaktowa	!	!LO:TX:t=P:problem:kreska pseudotaktowa	!
1G\	u-	2B\	-li	2D/	-mi-	2d\	-li
=41-	=41-	=41-	=41-	=41-	=41-	=41-	=41-
.	.	2c\	u-	1A	-ne	2e\	U-
2F\	-ni-	2d\	.	.	.	2f\	-ni-
*lig	*	*	*	*	*	*	*
1E	-ge-	4G/	.	2B\	fi-	1.g	-ge-
.	.	4A/	.	.	.	.	.
!	!	!	!	!LO:TX:t=P:problem:kreska pseudotaktowa	!	!	!
.	.	4B/	.	2G/	-li	.	.
!	!	!LO:TX:t=P:problem:kreska pseudotaktowa	!	!	!	!	!
.	.	4G/	.	.	.	.	.
=42-	=42-	=42-	=42-	=42-	=42-	=42-	=42-
1D	.	2d\	.	2.A/	U-	.	.
!	!	!	!	!	!	!LO:TX:t=P:problem:kreska pseudotaktowa	!
.	.	2D/	-ni-	.	.	2f\	.
.	.	.	.	4B\	-ni-	.	.
*Xlig	*	*lig	*	*	*	*	*
2C/	.	1G	-ge-	2c\	-ge-	2e\	.
!LO:TX:t=P:problem:kreska pseudotaktowa	!	!	!	!	!	!	!
2BB/	.	.	.	1d\	.	4d\	.
.	.	.	.	.	.	4e\	.
=43-	=43-	=43-	=43-	=43-	=43-	=43-	=43-
*	*	*col	*	*	*	*	*
2.AA/	.	2.A/	.	.	.	4f\	.
.	.	.	.	.	.	8e\L	.
.	.	.	.	.	.	8d\J	.
*	*	*	*	*lig	*	*	*
!	!	!	!	!LO:TX:t=P:problem:przekreślona synkopowana wartość	!	!	!
.	.	.	.	1c	.	4e\	.
*	*	*Xlig	*	*	*	*	*
!	!	!LO:TX:t=P:problem:kreska pseudotaktowa	!	!	!	!LO:TX:t=P:problem:kreska pseudotaktowa	!
4AA/	-ni-	4A/	-ni-	.	.	4f\	.
*	*	*Xcol	*	*	*	*	*
!LO:TX:t=P:problem:kreska pseudotaktowa	!	!	!	!	!	!	!
0GG	-te	0.D	-te	.	.	2g\	.
!	!	!	!	!LO:TX:t=P:problem:przekreślona synkopowana wartość	!	!	!
.	.	.	.	1B\	.	4G/	.
.	.	.	.	.	.	4A/	.
*	*	*	*	*Xlig	*	*	*
=44-	=44-	=44-	=44-	=44-	=44-	=44-	=44-
.	.	.	.	.	.	4B/	.
.	.	.	.	.	.	4cny/	.
*	*	*	*	*custos:G	*	*	*
!	!	!	!	!LO:LB:g=original	!	!	!
!	!	!	!	!LO:TX:t=P:problem:kreska pseudotaktowa	!	!LO:TX:t=P:problem:kreska pseudotaktowa	!
.	.	.	.	2G/	-ni-	2d\	ni-
1r	.	.	.	1A	-te	1d	-te
=45-	=45-	=45-	=45-	=45-	=45-	=45-	=45-
*	*	*lig	*	*	*	*	*
0D	Je-	1A	Je-	0d	Je-	4d\	Je-
.	.	.	.	.	.	4e\	.
.	.	.	.	.	.	4f\	.
!	!	!	!	!	!	!LO:TX:t=P:problem:kreska pseudotaktowa	!
.	.	.	.	.	.	4g\	.
.	.	1D	.	.	.	2a\	.
.	.	.	.	.	.	2.A/	.
*	*	*Xlig	*	*	*	*	*
=46-	=46-	=46-	=46-	=46-	=46-	=46-	=46-
2.AA/	-ſu	0E	-ſu	0c	-ſu	.	.
.	.	.	.	.	.	4B/	.
.	.	.	.	.	.	4c/	.
!LO:TX:t=P:problem:kreska pseudotaktowa	!	!	!	!	!	!LO:TX:t=P:problem:kreska pseudotaktowa	!
4BB/	.	.	.	.	.	4d\	.
1C	.	.	.	.	.	2e\	.
.	.	.	.	.	.	4d\	.
.	.	.	.	.	.	4c/	.
=47-	=47-	=47-	=47-	=47-	=47-	=47-	=47-
4GG/	Chri-	1.G	Chri-	1B	Chri-	2d\	.
4AA/	.	.	.	.	.	.	.
4BB/	.	.	.	.	.	2G/	-ſu
!LO:TX:t=P:problem:kreska pseudotaktowa	!	!	!	!	!	!	!
4GG/	.	.	.	.	.	.	.
*lig	*	*	*	*	*	*	*
!	!	!	!	!	!	!LO:TX:t=P:problem:kreska pseudotaktowa	!
1D	.	.	.	2A/	.	0A	Chri-
!	!	!LO:TX:t=P:problem:kreska pseudotaktowa	!	!	!	!	!
.	.	2F/	.	1d\	.	.	.
*	*	*custos:E	*	*	*	*	*
!	!	!LO:LB:g=original	!	!	!	!	!
=48-	=48-	=48-	=48-	=48-	=48-	=48-	=48-
1AA	.	1E	.	.	.	.	.
.	.	.	.	2c\	.	.	.
*Xlig	*	*	*	*	*	*custos:A	*
!	!	!	!	!	!	!LO:LB:g=original	!
!LO:TX:t=P:problem:kreska pseudotaktowa	!	!	!	!LO:TX:t=P:problem:kreska pseudotaktowa	!	!LO:TX:t=P:problem:kreska pseudotaktowa	!
0.D	-ſte	2.D/	-ſte.	0d	-ſte.	0.A	-ſte
!	!	!LO:TX:t=P:problem:kreska pseudotaktowa	!	!	!	!	!
.	.	4E/	.	.	.	.	.
=49-	=49-	=49-	=49-	=49-	=49-	=49-	=49-
.	.	4F/	.	.	.	.	.
.	.	4G/	.	.	.	.	.
!	!	!LO:TX:t=P:problem:kreska pseudotaktowa	!	!	!	!	!
.	.	2A/	.	.	.	.	.
.	.	1r	.	2r	.	.	.
.	.	.	.	2.A/	Do-	.	.
=50-	=50-	=50-	=50-	=50-	=50-	=50-	=50-
2.D/	Do-	2.F/	Do-	.	.	2r	.
.	.	.	.	4A/	-mi-	.	.
!	!	!	!	!LO:TX:t=P:problem:kreska pseudotaktowa	!	!	!
.	.	.	.	2A/	-ne	2.f\	Do-
!	!	!LO:TX:t=P:problem:kreska pseudotaktowa	!	!	!	!	!
4D/	-mi-	4G/	-mi-	.	.	.	.
2D/	-ne	2A/	-ne	2d\	De-	.	.
.	.	.	.	.	.	4f\	-mi-
!LO:TX:t=P:problem:kreska pseudotaktowa	!	!	!	!	!	!LO:TX:t=P:problem:kreska pseudotaktowa	!
2D/	De-	2B\	De-	2d\	-us	2f\	-ne
*custos:C	*	*	*	*	*	*	*
!LO:LB:g=original	!	!	!	!	!	!	!
=51-	=51-	=51-	=51-	=51-	=51-	=51-	=51-
2C/	-us	4c\	.	2.G/	A-	1e	De-
.	.	4A/	.	.	.	.	.
1C	A-	1c	-us	.	.	.	.
!	!	!	!	!LO:TX:t=P:problem:kreska pseudotaktowa	!	!	!
.	.	.	.	4Fny/	.	.	.
.	.	.	.	2E/	.	1g	-us
!LO:TX:t=P:problem:kreska pseudotaktowa	!	!LO:TX:t=P:problem:kreska pseudotaktowa:między nutą a kropką	!	!	!	!	!
2BB/	-gnus	2.d\	A-	2D/	.	.	.
=52-	=52-	=52-	=52-	=52-	=52-	=52-	=52-
*lig	*	*	*	*	*	*	*
1AA	De-	.	.	2E/	.	2a\	A-
.	.	4c\	.	.	.	.	.
.	.	1c	-gnus	2F/	-gnus	2a\	-gnus
1GG	.	.	.	1G	De-	0d	De-
!	!	!LO:TX:t=P:problem:kreska pseudotaktowa	!	!	!	!	!
.	.	2B\	.	.	.	.	.
*Xlig	*	*	*	*	*	*	*
=53-	=53-	=53-	=53-	=53-	=53-	=53-	=53-
!	!	!	!	!LO:TX:t=P:problem:kreska pseudotaktowa	!	!	!
1D	.	1A	De-	1A	-i	.	.
!LO:TX:t=P:problem:kreska pseudotaktowa	!	!LO:TX:t=P:problem:kreska pseudotaktowa	!	!	!	!LO:TX:t=P:problem:kreska pseudotaktowa	!
1AA	-i	1A	-i	2r	.	1e	-i.
.	.	.	.	2.A/	fi-	.	.
=54-	=54-	=54-	=54-	=54-	=54-	=54-	=54-
2r	.	2.B\	fi-	.	.	2r	.
.	.	.	.	4A/	-li-	.	.
!	!	!	!	!LO:TX:t=P:problem:kreska pseudotaktowa	!	!	!
2.E\	fi-	.	.	2G#X/	-us	2.e\	fi-
.	.	4B\	-li-	.	.	.	.
!	!	!LO:TX:b:t=P:problem:# below	!	!	!	!	!
.	.	2G#X/	-us	2B\	Pa-	.	.
4E\	-li-	.	.	.	.	4e\	-li-
!LO:TX:b:t=P:problem:# below	!	!	!	!	!	!LO:TX:t=P:problem:kreska pseudotaktowa	!
2C#X/	-us	4.A/	Pa-	1A/	-tris	2e\	-us
!	!	!LO:TX:t=P:problem:kreska pseudotaktowa	!	!	!	!	!
.	.	8Gny/	.	.	.	.	.
=55-	=55-	=55-	=55-	=55-	=55-	=55-	=55-
2.D/	Pa-	4F/	.	.	.	1f	Pa-
.	.	4E/	.	.	.	.	.
*	*	*	*	*	*ij	*	*
.	.	2D/	.	2.d\	fi-	.	.
4E\	.	.	.	.	.	.	.
4F\	.	0.A	.	.	.	2f\	-tris.
4D/	.	.	.	4d\	-li-	.	.
!LO:TX:t=P:problem:kreska pseudotaktowa	!	!	!	!	!	!	!
2A\	.	.	.	2e\	-us	4.a\	fi-
!	!	!	!	!	!	!LO:TX:t=P:problem:kreska pseudotaktowa	!
.	.	.	.	.	.	8g\	-li-
=56-	=56-	=56-	=56-	=56-	=56-	=56-	=56-
0D	.	.	.	0d	Pa-	4f\	-us
.	.	.	.	.	.	4e\	Pa-
.	.	.	.	.	.	4d\	.
.	.	.	.	.	.	4e\	.
.	.	.	.	.	.	1f	.
=57-	=57-	=57-	=57-	=57-	=57-	=57-	=57-
!LO:TX:t=P:problem:kreska pseudotaktowa	!	!	!	!LO:TX:a:t=P:problem:# above	!	!LO:TX:t=P:problem:kreska pseudotaktowa	!
0AAl	-tris	0Al	-tris	0c#Xl	-tris	0el	-tris.
*	*	*	*	*	*Xij	*	*
!LO:LB:g=original	!	!LO:LB:g=original	!	!LO:LB:g=original	!	!LO:LB:g=original	!
=58||	=58||	=58||	=58||	=58||	=58||	=58||	=58||
!	!	!LO:TX:t=P:problem:kreska pseudotaktowa	!	!LO:TX:t=P:problem:kreska pseudotaktowa	!	!	!
00r	.	0r	.	0r	.	2A/	QVi
.	.	.	.	.	.	4A/	tol-
!	!	!	!	!	!	!LO:TX:t=P:problem:kreska pseudotaktowa	!
.	.	.	.	.	.	4B/	.
.	.	.	.	.	.	4c/	.
.	.	.	.	.	.	4d/	.
.	.	.	.	.	.	4e\	.
!	!	!	!	!	!	!LO:TX:t=P:problem:kreska pseudotaktowa	!
.	.	.	.	.	.	4c/	.
=59-	=59-	=59-	=59-	=59-	=59-	=59-	=59-
.	.	2D/	QVi	0A	QVi	4d\	.
.	.	.	.	.	.	4e\	.
.	.	4D/	tol-	.	.	4f\	.
!	!	!LO:TX:t=P:problem:kreska pseudotaktowa	!	!	!	!LO:TX:t=P:problem:kreska pseudotaktowa	!
.	.	4E/	.	.	.	4e\	.
.	.	4F/	.	.	.	4d\	.
.	.	4G/	.	.	.	8c/L	.
.	.	.	.	.	.	8B/J	.
.	.	4A/	.	.	.	4c/	.
!	!	!	!	!	!	!LO:TX:t=P:problem:kreska pseudotaktowa	!
.	.	4F/	.	.	.	4A/	.
=60-	=60-	=60-	=60-	=60-	=60-	=60-	=60-
!LO:TX:t=P:problem:kreska pseudotaktowa	!	!	!	!	!	!	!
0r	.	4G/	.	0D	tol-	2B/	.
.	.	4A/	.	.	.	.	.
.	.	4B/	.	.	.	4G/	-lis
.	.	4c/	.	.	.	4A/	.
.	.	2d\	.	.	.	4B/	.
.	.	.	.	.	.	4c/	.
!	!	!LO:TX:t=P:problem:kreska pseudotaktowa	!	!	!	!	!
.	.	2B\	-lis	.	.	4d\	.
!	!	!	!	!	!	!LO:TX:t=P:problem:kreska pseudotaktowa	!
.	.	.	.	.	.	4B/	.
=61-	=61-	=61-	=61-	=61-	=61-	=61-	=61-
2AA/	QVi	4A/	pec-	1.E	-lis	2c/	.
.	.	4B/	.	.	.	.	.
4AA/	tol-	4c\	.	.	.	2A/	pec-
!LO:TX:t=P:problem:kreska pseudotaktowa	!	!	!	!	!	!	!
4BB/	.	4d\	.	.	.	.	.
4C/	.	2e\	.	.	.	2.G/	-ca-
4D/	.	.	.	.	.	.	.
!	!	!LO:TX:t=P:problem:kreska pseudotaktowa	!	!LO:TX:t=P:problem:kreska pseudotaktowa	!	!	!
4E/	.	2e\	-ca-	2G/	pec-	.	.
!LO:TX:t=P:problem:kreska pseudotaktowa	!	!	!	!	!	!LO:TX:t=P:problem:kreska pseudotaktowa	!
4C/	.	.	.	.	.	4A/	.
=62-	=62-	=62-	=62-	=62-	=62-	=62-	=62-
*	*	*	*	*lig	*	*	*
4D/	.	2d\	-ta	1F	-ca-	4B/	.
4E\	.	.	.	.	.	8A/L	.
.	.	.	.	.	.	8G/J	.
4F\	.	2.d\	mun-	.	.	2A/	.
4G\	.	.	.	.	.	.	.
1A	.	.	.	1E	.	2A/	-ta
.	.	8c\L	.	.	.	.	.
.	.	8B\J	.	.	.	.	.
!	!	!LO:TX:b:t=P:problem:# below	!	!	!	!	!
!	!	!LO:TX:t=P:problem:kreska pseudotaktowa	!	!	!	!	!
.	.	2c#X\	.	.	.	4a\	mun-
!	!	!	!	!	!	!LO:TX:t=P:problem:kreska pseudotaktowa	!
.	.	.	.	.	.	4g\	.
*	*	*	*	*Xlig	*	*	*
=63-	=63-	=63-	=63-	=63-	=63-	=63-	=63-
2D/	-lis	2d\	-di	1D	-ta	4f\	.
.	.	.	.	.	.	4e\	.
!LO:TX:t=P:problem:kreska pseudotaktowa	!	!	!	!	!	!	!
2D/	pec-	2A/	pec-	.	.	4f\	.
.	.	.	.	.	.	8e\L	.
.	.	.	.	.	.	8f\J	.
2G\	-ca-	2B\	-ca-	1.D	mun-	2g\	.
!	!	!LO:TX:t=P:problem:kreska pseudotaktowa	!	!	!	!LO:TX:t=P:problem:kreska pseudotaktowa	!
2F\	-ta	2A/	-ta	.	.	2a\	.
*	*	*	*	*	*	*custos:g	*
!	!	!	!	!	!	!LO:LB:g=original	!
=64-	=64-	=64-	=64-	=64-	=64-	=64-	=64-
1E	mun-	2B\	mun-	.	.	1.g	.
!	!	!	!	!LO:TX:t=P:problem:kreska pseudotaktowa	!	!	!
.	.	4A/	.	2C/	.	.	.
.	.	4G/	.	.	.	.	.
!	!	!LO:TX:t=P:problem:kreska pseudotaktowa	!	!	!	!	!
2D/	-di	1A	-di	2D/	-di	.	.
1D\	mi-	.	.	1d\	Mi-	4f\	.
!	!	!	!	!	!	!LO:TX:t=P:problem:kreska pseudotaktowa	!
.	.	.	.	.	.	4e\	.
*	*	*custos:F	*	*	*	*	*
!	!	!LO:LB:g=original	!	!	!	!	!
=65-	=65-	=65-	=65-	=65-	=65-	=65-	=65-
.	.	00r	.	.	.	2d\	.
!LO:TX:t=P:problem:kreska pseudotaktowa	!	!	!	!LO:TX:t=P:problem:kreska pseudotaktowa:między nutą a kropką	!	!	!
2AA/	-ſe-	.	.	2.c\	-ſe-	2e\	-di
!	!	!	!	!	!	!LO:TX:t=P:problem:kreska pseudotaktowa	!
1C	-re-	.	.	.	.	1e	mi-
.	.	.	.	4d\	.	.	.
.	.	.	.	4e\	.	.	.
!	!	!	!	!LO:TX:t=P:problem:kreska pseudotaktowa	!	!	!
.	.	.	.	4c\	.	.	.
=66-	=66-	=66-	=66-	=66-	=66-	=66-	=66-
1GG	-re	.	.	2d\	.	2.d\	-ſe-
.	.	.	.	2.d\	-re-	.	.
.	.	.	.	.	.	4e\	-re-
1D	no-	.	.	.	.	1f	-re
.	.	.	.	4A/	-re	.	.
.	.	.	.	1d\	no-	.	.
=67-	=67-	=67-	=67-	=67-	=67-	=67-	=67-
!LO:TX:t=P:problem:kreska pseudotaktowa	!	!LO:TX:t=P:problem:kreska pseudotaktowa	!	!	!	!	!
1AA	-bis	1r	.	.	.	2e\	no-
!	!	!	!	!LO:TX:b:t=P:problem:# below	!	!LO:TX:t=P:problem:kreska pseudotaktowa	!
.	.	.	.	2c#X\	.	2A/	-bis.
!LO:TX:t=P:problem:kreska pseudotaktowa	!	!	!	!LO:TX:t=P:problem:kreska pseudotaktowa	!	!	!
00r	.	2D/	Qui	1d	-bis	2r	.
.	.	4D/	tol-	.	.	2A/	Qui
!	!	!LO:TX:t=P:problem:kreska pseudotaktowa	!	!	!	!	!
.	.	4E/	.	.	.	.	.
=68-	=68-	=68-	=68-	=68-	=68-	=68-	=68-
.	.	4F/	.	0r	.	4A/	tol-
.	.	4G/	.	.	.	4B/	.
.	.	4A/	.	.	.	4c/	.
!	!	!	!	!	!	!LO:TX:t=P:problem:kreska pseudotaktowa	!
.	.	4F/	.	.	.	4d\	.
.	.	4G/	.	.	.	4e\	.
.	.	4A/	.	.	.	4c/	.
.	.	4B\	.	.	.	4d\	.
.	.	4cny\	.	.	.	4e\	.
=69-	=69-	=69-	=69-	=69-	=69-	=69-	=69-
!	!	!	!	!LO:TX:t=P:problem:kreska pseudotaktowa	!	!	!
.	.	2d\	.	1r	.	4f\	.
.	.	.	.	.	.	4e\	.
!	!	!LO:TX:t=P:problem:kreska pseudotaktowa:między nutą a kropką	!	!	!	!	!
.	.	2.d\	lis	.	.	4f\	.
!	!	!	!	!	!	!LO:TX:t=P:problem:kreska pseudotaktowa	!
.	.	.	.	.	.	4d\	.
!LO:TX:t=P:problem:kreska pseudotaktowa	!	!	!	!	!	!	!
0A	Qui	.	.	2A/	Qui	2e\	.
.	.	8c\L	.	.	.	.	.
.	.	8B\J	.	.	.	.	.
!	!	!	!	!	!	!LO:TX:t=P:problem:kreska pseudotaktowa	!
.	.	4c\	.	4A/	tol-	2c/	-lis.
!	!	!LO:TX:t=P:problem:kreska pseudotaktowa	!	!LO:TX:t=P:problem:kreska pseudotaktowa	!	!	!
.	.	4d\	.	4B\	.	.	.
*	*	*	*	*custos:c	*	*	*
!	!	!	!	!LO:LB:g=original	!	!	!
=70-	=70-	=70-	=70-	=70-	=70-	=70-	=70-
.	.	2e\	.	4cny\	.	1r	.
.	.	.	.	4d\	.	.	.
.	.	2c\	pec-	4e\	.	.	.
.	.	.	.	4c\	.	.	.
*custos:D	*	*	*	*	*	*	*
!LO:PB:g=original	!	!	!	!	!	!	!
0D	tol-	2.f\	-ca-	2d\	.	2d\	Qui
.	.	.	.	1A/	-lis	4d\	tol-
!	!	!LO:TX:t=P:problem:kreska pseudotaktowa	!	!	!	!LO:TX:t=P:problem:kreska pseudotaktowa	!
.	.	4e\	.	.	.	4e\	.
=71-	=71-	=71-	=71-	=71-	=71-	=71-	=71-
.	.	2d\	.	.	.	4f\	.
.	.	.	.	.	.	4g\	.
!	!	!LO:TX:t=P:problem:przekreślona synkopowana wartość	!	!LO:TX:t=P:problem:kreska pseudotaktowa	!	!	!
.	.	1d	-ta	2d\	pec-	4a\	.
.	.	.	.	.	.	4f\	.
1E	-lis	.	.	2B\	-ca-	2g\	-lis
!	!	!LO:TX:t=P:problem:przekreślona synkopowana wartość	!	!	!	!LO:TX:t=P:problem:kreska pseudotaktowa	!
.	.	1c\	mun-	2.G/	-ta	2e\	pec-
*	*	*	*	*	*	*custos:d	*
!	!	!	!	!	!	!LO:LB:g=original	!
=72-	=72-	=72-	=72-	=72-	=72-	=72-	=72-
!LO:TX:t=P:problem:kreska pseudotaktowa	!	!	!	!	!	!	!
1G	pec-	.	.	.	.	2.d\	-ca-
.	.	.	.	4A/	.	.	.
!	!	!LO:TX:t=P:problem:kreska pseudotaktowa	!	!	!	!	!
.	.	2B\	.	4B\	.	.	.
!	!	!	!	!LO:TX:t=P:problem:kreska pseudotaktowa	!	!	!
.	.	.	.	4G/	.	4e\	.
*lig	*	*	*	*	*	*	*
1F	-ca-	4c\	.	2.A/	.	4f\	.
.	.	4B\	.	.	.	4g\	.
!	!	!	!	!	!	!LO:TX:t=P:problem:przekreślona synkopowana wartość	!
.	.	4c\	.	.	.	1a\	.
.	.	4d\	.	4B\	.	.	.
=73-	=73-	=73-	=73-	=73-	=73-	=73-	=73-
1E	.	1e	.	4c\	.	.	.
.	.	.	.	8B\L	.	.	.
.	.	.	.	8A\J	.	.	.
!	!	!	!	!	!	!LO:TX:t=P:problem:przekreślona synkopowana wartość	!
.	.	.	.	4B\	.	1g	-ta
!	!	!	!	!LO:TX:t=P:problem:kreska pseudotaktowa	!	!	!
.	.	.	.	4c\	.	.	.
*Xlig	*	*	*	*	*	*	*
!	!	!LO:TX:t=P:problem:kreska pseudotaktowa	!	!	!	!	!
1D	-ta	1A	-di	4d\	.	.	.
.	.	.	.	4A/	.	.	.
!	!	!	!	!	!	!LO:TX:t=P:problem:kreska pseudotaktowa	!
.	.	.	.	1d\	.	2f\	mun-
=74-	=74-	=74-	=74-	=74-	=74-	=74-	=74-
!LO:TX:t=P:problem:kreska pseudotaktowa	!	!	!	!	!	!	!
1A	mun-	0r	.	.	.	2e\	-di
!	!	!	!	!LO:TX:b:t=P:problem:# below	!	!	!
.	.	.	.	2c#X\	mun-	2.A/	ſu-
!	!	!	!	!LO:TX:t=P:problem:kreska pseudotaktowa	!	!	!
2D/	-di	.	.	0d	-di	.	.
.	.	.	.	.	.	4A/	-sci-
!	!	!	!	!	!	!LO:TX:t=P:problem:kreska pseudotaktowa	!
2.D/	ſus-	.	.	.	.	2A/	-pe
=75-	=75-	=75-	=75-	=75-	=75-	=75-	=75-
.	.	2r	.	.	.	2F/	de-
4D/	-ci-	.	.	.	.	.	.
!LO:TX:t=P:problem:kreska pseudotaktowa	!	!	!	!	!	!	!
2D/	-pe	2.A/	ſus-	.	.	2A/	-pre-
2C/	de-	.	.	1r	.	2.c/	-ca-
.	.	4A/	-ci-	.	.	.	.
!	!	!LO:TX:t=P:problem:kreska pseudotaktowa	!	!	!	!	!
2AA/	-pre-	2A/	-pe	.	.	.	.
!	!	!	!	!	!	!LO:TX:t=P:problem:kreska pseudotaktowa	!
.	.	.	.	.	.	4c/	-ti-
=76-	=76-	=76-	=76-	=76-	=76-	=76-	=76-
2.C/	-ca-	2G/	de-	2.E/	de	2c/	-o-
*	*	*custos:c	*	*	*	*	*
!	!	!LO:PB:g=original	!	!	!	!	!
!	!	!LO:TX:t=P:problem:kreska pseudotaktowa	!	!	!	!	!
.	.	2c\	-pre-	.	.	2e\	-ne(m)
!LO:TX:t=P:problem:kreska pseudotaktowa	!	!	!	!	!	!	!
4C/	-ti-	.	.	4E/	pre-	.	.
2GG/	-o-	2B\	-ca-	2G/	-ca-	4d\	no-
.	.	.	.	.	.	8e\L	.
.	.	.	.	.	.	8f\J	.
!	!	!	!	!LO:TX:t=P:problem:kreska pseudotaktowa	!	!	!
2GG/	-nem	2B\	-ti-	2G/	-ti-	2.g\	.
=77-	=77-	=77-	=77-	=77-	=77-	=77-	=77-
1D	no-	2d\	-o-	2A/	-o-	.	.
.	.	.	.	.	.	8f\L	.
.	.	.	.	.	.	8e\J	.
!	!	!LO:TX:t=P:problem:kreska pseudotaktowa	!	!	!	!	!
.	.	2A/	-nem	2A/	-nem	2f\	.
!LO:TX:t=P:problem:kreska pseudotaktowa	!	!	!	!	!	!LO:TX:t=P:problem:kreska pseudotaktowa	!
0AA	-ſtram	2.c\	no-	1A	noſ-	0e	-ſtram
.	.	4d\	.	.	.	.	.
=78-	=78-	=78-	=78-	=78-	=78-	=78-	=78-
!	!	!	!	!LO:TX:t=P:problem:kreska pseudotaktowa	!	!	!
.	.	2e\	.	1A	-tra(m).	.	.
!	!	!LO:TX:t=P:problem:kreska pseudotaktowa	!	!	!	!	!
.	.	2E/	-ſtram	.	.	.	.
!	!	!	!	!LO:TX:t=P:problem:kreska pseudotaktowa	!	!	!
1r	.	2r	.	1A	Qui	1e	Q(ui)
.	.	2e\	Q(ui)	.	.	.	.
*	*	*	*	*custos:A	*	*	*
!	!	!	!	!LO:LB:g=original	!	!	!
=79-	=79-	=79-	=79-	=79-	=79-	=79-	=79-
1D	Qui	0f	ſe-	1.A	ſe-	2d\	ſe-
!	!	!	!	!	!	!LO:TX:t=P:problem:kreska pseudotaktowa	!
.	.	.	.	.	.	2A/	.
!LO:TX:t=P:problem:kreska pseudotaktowa	!	!	!	!	!	!	!
1D	ſe-	.	.	.	.	4d\	.
.	.	.	.	.	.	4e\	.
!	!	!	!	!LO:TX:t=P:problem:kreska pseudotaktowa	!	!	!
.	.	.	.	2B\	-des	4f\	.
!	!	!	!	!	!	!LO:TX:t=P:problem:kreska pseudotaktowa	!
.	.	.	.	.	.	4d\	.
*	*	*	*	*	*	*custos:g	*
!	!	!	!	!	!	!LO:LB:g=original	!
=80-	=80-	=80-	=80-	=80-	=80-	=80-	=80-
2E\	-des	2e\	-des	2B\	ad	1g	.
!	!	!LO:TX:t=P:problem:kreska pseudotaktowa	!	!	!	!	!
2E\	ad	2e\	ad	1cny	dex-	.	.
!	!	!	!	!	!	!LO:TX:t=P:problem:kreska pseudotaktowa	!
1F	dex-	4A/	dex-	.	.	1c	-des
.	.	4B\	.	.	.	.	.
!	!	!	!	!LO:TX:t=P:problem:kreska pseudotaktowa	!	!	!
.	.	4c\	.	2A/	-te-	.	.
.	.	4A/	.	.	.	.	.
=81-	=81-	=81-	=81-	=81-	=81-	=81-	=81-
2E\	-te-	2.B\	te-	1G	-ra(m)	2r	.
!LO:TX:t=P:problem:kreska pseudotaktowa	!	!	!	!	!	!	!
2E\	-ram	.	.	.	.	2e\	ad
.	.	8A/L	.	.	.	.	.
!	!	!LO:TX:t=P:problem:kreska pseudotaktowa	!	!	!	!	!
.	.	8G/J	.	.	.	.	.
*lig	*	*	*	*	*	*	*
1D	Pa-	4A/	.	1d	Pa-	1f	dex-
.	.	4G/	.	.	.	.	.
.	.	4A/	.	.	.	.	.
.	.	4B\	.	.	.	.	.
=82-	=82-	=82-	=82-	=82-	=82-	=82-	=82-
!	!	!	!	!LO:TX:t=P:problem:kreska pseudotaktowa	!	!	!
!	!	!	!	!LO:TX:b:t=4	!	!	!
1C	.	4c\	.	00G	-tris.	2e\	-te-
.	.	4G/	-ram	.	.	.	.
!	!	!	!	!	!	!LO:TX:t=P:problem:kreska pseudotaktowa	!
.	.	1c	Pa-	.	.	2e\	-ra(m)
*Xlig	*	*	*	*	*	*	*
!LO:TX:t=P:problem:kreska pseudotaktowa	!	!	!	!	!	!	!
1G	.	.	.	.	.	1d	Pa-
.	.	2B\	.	.	.	.	.
*custos:C	*	*	*	*	*	*	*
!LO:LB:g=original	!	!	!	!	!	!	!
=83-	=83-	=83-	=83-	=83-	=83-	=83-	=83-
*lig	*	*	*	*	*	*	*
!	!	!LO:TX:t=P:problem:kreska pseudotaktowa	!	!	!	!LO:TX:t=P:problem:kreska pseudotaktowa	!
1C	-tris	1c	-tris	.	.	0e	-tris.
!LO:TX:a:t=e.	!	!	!	!	!	!	!
1E	.	1r	.	.	.	.	.
*Xlig	*	*	*	*	*	*	*
=84-	=84-	=84-	=84-	=84-	=84-	=84-	=84-
2r	.	4A/	Mi-	2A/	Mi-	0e	Mi-
.	.	4A/	-ſe-	.	.	.	.
!LO:TX:t=P:problem:kreska pseudotaktowa	!	!	!	!	!	!	!
2A\	Mi-	1c	-re-	2A/	-ſe-	.	.
2A\	-ſe-	.	.	2.c\	-re-	.	.
!	!	!LO:TX:t=P:problem:kreska pseudotaktowa	!	!	!	!	!
2.c\	-re-	2A/	-re	.	.	.	.
.	.	.	.	4B\	.	.	.
=85-	=85-	=85-	=85-	=85-	=85-	=85-	=85-
.	.	4c\	no-	4A/	.	1e	-ſe-
4B\	.	4d\	.	4G/	.	.	.
*	*	*custos:e	*	*	*	*	*
!LO:TX:t=P:problem:kreska pseudotaktowa	!	!LO:LB:g=original	!	!	!	!	!
2A\	.	4e\	.	1c	.	.	.
!	!	!LO:TX:t=P:problem:kreska pseudotaktowa	!	!	!	!	!
.	.	4c\	.	.	.	.	.
1G	-re	2d\	.	.	.	1g	-re-
!	!	!	!	!LO:TX:t=P:problem:kreska pseudotaktowa	!	!	!
.	.	2.e\	.	2B\	-re	.	.
=86-	=86-	=86-	=86-	=86-	=86-	=86-	=86-
2.A\	no-	.	.	0A	no-	1e	-re
.	.	4d\	.	.	.	.	.
.	.	4c\	.	.	.	.	.
!LO:TX:t=P:problem:kreska pseudotaktowa	!	!LO:TX:t=P:problem:kreska pseudotaktowa	!	!	!	!	!
4G\	.	4B\	.	.	.	.	.
!	!	!	!	!	!	!LO:TX:t=P:problem:kreska pseudotaktowa	!
2F\	.	4A/	.	.	.	1f	no-
.	.	8B\L	.	.	.	.	.
.	.	8c\J	.	.	.	.	.
4E\	.	1d\	.	.	.	.	.
4D/	.	.	.	.	.	.	.
=87-	=87-	=87-	=87-	=87-	=87-	=87-	=87-
1A	.	.	.	2A/	-bis.	2e\	-bis.
!	!	!LO:TX:b:t=P:problem:# below	!	!	!	!	!
!	!	!LO:TX:t=P:problem:kreska pseudotaktowa	!	!LO:TX:t=P:problem:kreska pseudotaktowa	!	!	!
.	.	2c#X\	.	2r	.	2.A/	Quo-
!LO:TX:t=P:problem:kreska pseudotaktowa	!	!	!	!	!	!	!
1D	-bis	2d\	-bis.	2.D/	Quo-	.	.
.	.	.	.	.	.	4A/	-ni-
!	!	!	!	!	!	!LO:TX:t=P:problem:kreska pseudotaktowa	!
.	.	2.D/	Quo-	.	.	2d\	-am
.	.	.	.	4D/	-ni-	.	.
=88-	=88-	=88-	=88-	=88-	=88-	=88-	=88-
!	!	!	!	!	!	!LO:TX:a:t=P:problem:# above	!
2r	.	.	.	1.A	-am	2d#X\	tu
.	.	4D/	-ni-	.	.	.	.
!	!	!LO:TX:t=P:problem:przekreślona synkopowana wartość	!	!	!	!	!
2.AA/	Quo-	1A	-a(m)	.	.	2e\	ſo-
.	.	.	.	.	.	2c/	-lus
4AA/	-ni-	.	.	.	.	.	.
!LO:TX:t=P:problem:kreska pseudotaktowa	!	!LO:TX:t=P:problem:przekreślona synkopowana wartość	!	!LO:TX:t=P:problem:kreska pseudotaktowa	!	!	!
2D/	-am	1F/	tu	2A/	tu	4dny\	ſan-
!	!	!	!	!	!	!LO:TX:t=P:problem:kreska pseudotaktowa	!
.	.	.	.	.	.	4e\	.
=89-	=89-	=89-	=89-	=89-	=89-	=89-	=89-
!	!	!	!	!LO:TX:b:t=P:problem:# below	!	!	!
2D/	tu	.	.	1B#X	ſo-	2f\	.
!	!	!LO:TX:t=P:problem:przekreślona synkopowana wartość	!	!	!	!	!
1E	ſo-	1G	ſo-	.	.	4e\	.
.	.	.	.	.	.	4d\	.
.	.	.	.	2G/	-lus	2.e\	.
!LO:TX:t=P:problem:kreska pseudotaktowa	!	!LO:TX:t=P:problem:kreska pseudotaktowa	!	!	!	!	!
2C/	-lus	2E/	-lus	2.A/	ſan-	.	.
.	.	.	.	.	.	8d\L	.
!	!	!	!	!	!	!LO:TX:t=P:problem:kreska pseudotaktowa	!
.	.	.	.	.	.	8e\J	.
=90-	=90-	=90-	=90-	=90-	=90-	=90-	=90-
2.D/	ſan-	1.A	ſan-	.	.	4f\	.
.	.	.	.	8Bny\L	.	4e\	.
!	!	!	!	!LO:TX:t=P:problem:kreska pseudotaktowa	!	!	!
.	.	.	.	8c\J	.	.	.
*	*	*	*	*custos:d	*	*	*
!	!	!	!	!LO:PB:g=original	!	!	!
!	!	!	!	!LO:TX:t=P:problem:kreska pseudotaktowa:między nutą a kropką	!	!	!
.	.	.	.	2.d\	.	4f\	.
!	!	!	!	!	!	!LO:TX:t=P:problem:kreska pseudotaktowa	!
4E\	.	.	.	.	.	4g\	.
*	*	*	*	*	*	*custos:a	*
!LO:TX:b:t=P:problem:# below	!	!	!	!	!	!LO:LB:g=original	!
2F#X\	.	.	.	.	.	2a\	.
.	.	.	.	4c\	.	.	.
!LO:TX:t=P:problem:kreska pseudotaktowa	!	!LO:TX:t=P:problem:kreska pseudotaktowa	!	!LO:TX:t=P:problem:kreska pseudotaktowa	!	!LO:TX:t=P:problem:kreska pseudotaktowa	!
2G\	.	2G/	.	2B\	-ctus.	2d\	-ctus.
=91-	=91-	=91-	=91-	=91-	=91-	=91-	=91-
2D/	-ctus	2A/	-ctus	2d\	tu	4f\	Tu
.	.	.	.	.	.	2f\	ſo-
4D/	tu	2A/	tu	2d\	ſo-	.	.
8C/L	.	.	.	.	.	4c/	-lus
8D/J	.	.	.	.	.	.	.
2E\	ſo-	1e	ſo-	4B\	-lus	2g\	do-
.	.	.	.	8A\L	.	.	.
.	.	.	.	8B\J	.	.	.
!LO:TX:t=P:problem:kreska pseudotaktowa	!	!	!	!LO:TX:t=P:problem:kreska pseudotaktowa	!	!LO:TX:t=P:problem:kreska pseudotaktowa	!
2C/	-lus	.	.	2c\	.	2e\	-mi-
*custos:D	*	*	*	*	*	*	*
!LO:LB:g=original	!	!	!	!	!	!	!
=92-	=92-	=92-	=92-	=92-	=92-	=92-	=92-
2.D\	Do-	2.d\	-lus	4A/	Do-	4f\	-nus.
.	.	.	.	8B\L	.	4e\	.
.	.	.	.	8c\J	.	.	.
.	.	.	.	2.d\	.	4f\	.
4E\	.	8cny\L	.	.	.	4g\	.
!	!	!LO:TX:t=P:problem:kreska pseudotaktowa	!	!	!	!	!
.	.	8B\J	.	.	.	.	.
!LO:TX:b:t=P:problem:# below	!	!	!	!	!	!	!
2F#X\	.	2A/	do-	.	.	2a\	.
.	.	.	.	4d\	-mi-	.	.
!LO:TX:t=P:problem:kreska pseudotaktowa	!	!	!	!LO:TX:t=P:problem:kreska pseudotaktowa	!	!	!
2G\	.	2G/	-mi-	2B,<\	-nus.	1g\	tu
=93-	=93-	=93-	=93-	=93-	=93-	=93-	=93-
!	!	!LO:TX:t=P:problem:kreska pseudotaktowa	!	!	!	!	!
2D/	-mi-	1A	-nus	4d,<\	tu	.	.
.	.	.	.	2d\	ſo-	.	.
!	!	!	!	!	!	!LO:TX:t=P:problem:kreska pseudotaktowa	!
!	!	!	!	!	!	!LO:TX:b:t=P:problem:# below	!
2D/	-nus	.	.	.	.	2f#X\	ſo-
.	.	.	.	4c,<\	-lus	.	.
2E\	tu	1r	.	2B,<\	Tu	2g\	-lus
4C/	ſo-	.	.	2c\	ſo-	2e\	al-
!LO:TX:t=P:problem:kreska pseudotaktowa	!	!	!	!	!	!	!
4C/	-lus	.	.	.	.	.	.
=94-	=94-	=94-	=94-	=94-	=94-	=94-	=94-
!	!	!	!	!LO:TX:t=P:problem:kreska pseudotaktowa	!	!	!
2.D/	al-	1.d	tu	1A	-lus	4fny\	-tiſ-
.	.	.	.	.	.	4e\	.
.	.	.	.	.	.	4f\	.
!	!	!	!	!	!	!LO:TX:t=P:problem:kreska pseudotaktowa	!
4E\	.	.	.	.	.	4g\	.
!LO:TX:b:t=P:problem:# below	!	!	!	!	!	!	!
2F#X\	-tiſ-	.	.	2r	.	2.a\	.
!	!	!	!	!LO:TX:t=P:problem:kreska pseudotaktowa	!	!	!
1G\	.	2B\	ſo-	2D/	Al-	.	.
.	.	.	.	.	.	4g\	-si-
=95-	=95-	=95-	=95-	=95-	=95-	=95-	=95-
!	!	!LO:TX:t=P:problem:kreska pseudotaktowa	!	!	!	!	!
.	.	1A	-lus	2.A/	-tiſ-	2.d\	-mus.
!LO:TX:t=P:problem:kreska pseudotaktowa	!	!	!	!	!	!	!
2Fny\	.	.	.	.	.	.	.
.	.	.	.	4B\	.	8c/L	.
!	!	!	!	!	!	!LO:TX:t=P:problem:kreska pseudotaktowa	!
.	.	.	.	.	.	8d/J	.
*	*	*custos:d	*	*	*	*	*
!	!	!LO:LB:g=original	!	!	!	!	!
2E\	.	2r	.	2c\	-si-	2e\	.
!	!	!LO:TX:t=P:problem:kreska pseudotaktowa	!	!LO:TX:t=P:problem:przekreślona synkopowana wartość	!	!	!
2D/	-si-	2D/	al-	1d,<\	-mus	2f\	tu
=96-	=96-	=96-	=96-	=96-	=96-	=96-	=96-
1.AA	-mus	2.A/	-tiſ-	.	.	1e	ſo-
!	!	!	!	!LO:TX:t=P:problem:przekreślona synkopowana wartość	!	!	!
.	.	.	.	1c	al-	.	.
.	.	4B\	.	.	.	.	.
.	.	2c\	.	.	.	2e\	-lus
!LO:TX:t=P:problem:kreska pseudotaktowa	!	!LO:TX:t=P:problem:kreska pseudotaktowa	!	!	!	!LO:TX:t=P:problem:kreska pseudotaktowa	!
2GG/	al-	2d\	.	2.B\	-tiſ-	2g\	al-
=97-	=97-	=97-	=97-	=97-	=97-	=97-	=97-
*lig	*	*	*	*	*	*	*
1AA	-tiſ-	2c\	.	.	.	1.e	-tiſ-
.	.	.	.	4A/	.	.	.
.	.	4B\	.	1A	.	.	.
.	.	4A/	.	.	.	.	.
*col	*	*	*	*	*	*	*
2.E\	.	2.B\	.	.	.	.	.
!	!	!	!	!LO:TX:t=P:problem:kreska pseudotaktowa	!	!	!
.	.	.	.	2G/	-si-	2e\	-si-
*Xlig	*	*	*	*	*	*	*
4E\	-si-	4B\	-si-	.	.	.	.
*Xcol	*	*	*	*	*	*	*
=98-	=98-	=98-	=98-	=98-	=98-	=98-	=98-
!LO:TX:t=P:problem:kreska pseudotaktowa	!	!LO:TX:t=P:problem:kreska pseudotaktowa	!	!	!	!	!
1AA	-mus	1A	-mus	1A,<	-mus	1c	-mus
*lig	*	*	*	*	*	*	*
!	!	!	!	!LO:TX:t=P:problem:kreska pseudotaktowa	!	!LO:TX:t=P:problem:kreska pseudotaktowa	!
1FF	Je-	1A	Je-	0.c	Je-	0f	Je-
=99-	=99-	=99-	=99-	=99-	=99-	=99-	=99-
1F	.	2.A/	-ſu	.	.	.	.
.	.	4B\	.	.	.	.	.
*Xlig	*	*	*	*	*	*	*
2E\	-ſu	1.c	.	.	.	0g	-ſu
2.C/	Chri-	.	.	.	.	.	.
*	*	*	*	*custos:e	*	*	*
!	!	!	!	!LO:LB:g=original	!	!	!
=100-	=100-	=100-	=100-	=100-	=100-	=100-	=100-
.	.	.	.	1e	-ſu	.	.
4D/	.	.	.	.	.	.	.
!	!	!LO:TX:t=P:problem:kreska pseudotaktowa:między nutą a kropką	!	!	!	!	!
4E\	.	2.G/	Chri-	.	.	.	.
!LO:TX:t=P:problem:kreska pseudotaktowa	!	!	!	!	!	!	!
4C/	.	.	.	.	.	.	.
!	!	!	!	!	!	!LO:TX:t=P:problem:kreska pseudotaktowa	!
0G	.	.	.	0.d	Chri-	1g	Chri-
.	.	4A/	.	.	.	.	.
.	.	1B\	.	.	.	.	.
*	*	*	*	*	*	*custos:d	*
!	!	!	!	!	!	!LO:LB:g=original	!
=101-	=101-	=101-	=101-	=101-	=101-	=101-	=101-
!	!	!	!	!	!	!LO:TX:t=P:problem:kreska pseudotaktowa	!
.	.	.	.	.	.	0d	-ſte.
.	.	4A/	.	.	.	.	.
.	.	4G/	.	.	.	.	.
!LO:TX:t=P:problem:kreska pseudotaktowa	!	!	!	!	!	!	!
0D	-ſte	1A	.	.	.	.	.
=102-	=102-	=102-	=102-	=102-	=102-	=102-	=102-
!	!	!LO:TX:t=P:problem:kreska pseudotaktowa	!	!LO:TX:t=P:problem:kreska pseudotaktowa	!	!	!
.	.	1A	-ſte	1A	-ſte.	2r	.
.	.	.	.	.	.	2A/	Cum
*custos:A	*	*	*	*	*	*	*
!LO:LB:g=original	!	!	!	!	!	!	!
!LO:TX:t=P:problem:kreska pseudotaktowa	!	!	!	!	!	!	!
1r	.	2r	.	0r	.	4A/	ſan-
.	.	.	.	.	.	4B/	.
!	!	!	!	!	!	!LO:TX:b:t=P:problem:# below	!
.	.	2e\	Cum	.	.	4c#X/	.
!	!	!	!	!	!	!LO:TX:t=P:problem:kreska pseudotaktowa	!
.	.	.	.	.	.	4d/	.
=103-	=103-	=103-	=103-	=103-	=103-	=103-	=103-
2r	.	2e\	ſan-	.	.	2.e\	.
!	!	!LO:TX:t=P:problem:kreska pseudotaktowa	!	!	!	!	!
2A\	Cu(m)	2A/	-cto	.	.	.	.
.	.	.	.	.	.	4d\	.
2A\	San-	2e\	Spi-	1A	Cu(m)	2cny/	.
!LO:TX:t=P:problem:kreska pseudotaktowa	!	!	!	!	!	!LO:TX:t=P:problem:kreska pseudotaktowa	!
2D/	-cto	1d\	.	.	.	2f\	-cto
=104-	=104-	=104-	=104-	=104-	=104-	=104-	=104-
*lig	*	*	*	*lig	*	*	*
1AA	Spi-	.	.	1A	San-	4e\	Spi-
.	.	.	.	.	.	4d\	.
!	!	!LO:TX:t=P:problem:kreska pseudotaktowa	!	!	!	!	!
.	.	2c\	.	.	.	4e\	.
.	.	.	.	.	.	4f\	.
!	!	!	!	!LO:TX:t=P:problem:kreska pseudotaktowa	!	!	!
1GG	.	4B\	.	1D	.	1.g	.
.	.	4c\	.	.	.	.	.
.	.	1d\	.	.	.	.	.
*Xlig	*	*	*	*Xlig	*	*	*
=105-	=105-	=105-	=105-	=105-	=105-	=105-	=105-
4C/	.	.	.	2E/	-cto	.	.
4D/	.	.	.	.	.	.	.
!	!	!LO:TX:t=P:problem:kreska pseudotaktowa	!	!	!	!LO:TX:t=P:problem:kreska pseudotaktowa	!
2E\	.	2c\	.	1G	Spi-	2G/	.
*lig	*	*custos:d	*	*	*	*	*
!	!	!LO:LB:g=original	!	!	!	!	!
1D	.	2d\	.	.	.	4A/	.
.	.	.	.	.	.	8B/L	.
.	.	.	.	.	.	8c/J	.
!	!	!	!	!LO:TX:t=P:problem:kreska pseudotaktowa	!	!	!
.	.	2A/	-ri-	2F/	.	1d\	.
=106-	=106-	=106-	=106-	=106-	=106-	=106-	=106-
*col	*	*	*	*	*	*	*
2.AA/	.	0A	-tu	2.E/	.	.	.
!	!	!	!	!	!	!LO:TX:b:t=P:problem:# below	!
.	.	.	.	.	.	2c#X/	-ri-
*Xlig	*	*	*	*	*	*	*
4AA/	-ri-	.	.	4E/	-ri-	.	.
*Xcol	*	*	*	*	*	*	*
1D	-tu	.	.	1D	-tu	1d	-tu
=107-	=107-	=107-	=107-	=107-	=107-	=107-	=107-
*M3/2	*	*M3/2	*	*M3/2	*	*M3/2	*
*met(O|)	*	*met(O|)	*	*met(O|)	*	*met(O|)	*
1A	In	1c	In	1A	In	1e	In
1A	glo-	1c	glo-	1A	glo-	1e	-glo-
!LO:TX:t=P:problem:kreska pseudotaktowa	!	!LO:TX:t=P:problem:kreska pseudotaktowa	!	!LO:TX:t=P:problem:kreska pseudotaktowa	!	!LO:TX:t=P:problem:kreska pseudotaktowa	!
1A	-ri-	1c	-ri-	1A	-ri-	1e	-ri-
=108-	=108-	=108-	=108-	=108-	=108-	=108-	=108-
!	!	!	!	!	!	!LO:TX:t=P:problem:kreska pseudotaktowa	!
0.E	-a	0c	-a	1G,<	-a	0.e	-a
.	.	.	.	1.G	De-	.	.
.	.	1e	De-	.	.	.	.
!	!	!	!	!LO:TX:t=P:problem:kreska pseudotaktowa	!	!	!
.	.	.	.	2A/	.	.	.
=109-	=109-	=109-	=109-	=109-	=109-	=109-	=109-
!	!	!	!	!	!	!LO:TX:t=P:problem:kreska pseudotaktowa	!
0.G	De-	0.d	-i	2B\	.	0.g	De-
.	.	.	.	2c\	.	.	.
*	*	*	*	*lig	*	*	*
.	.	.	.	1d	.	.	.
!	!	!	!	!LO:TX:t=P:problem:kreska pseudotaktowa	!	!	!
.	.	.	.	1B	.	.	.
*	*	*	*	*Xlig	*	*	*
=110-	=110-	=110-	=110-	=110-	=110-	=110-	=110-
*	*	*	*	*col	*	*	*
!	!	!LO:TX:t=P:problem:kreska pseudotaktowa	!	!	!	!	!
0.D	-i	0.d	Pa-	1A	-i	1.f	.
.	.	.	.	0d	Pa-	.	.
.	.	.	.	.	.	2e\	.
!	!	!	!	!	!	!LO:TX:t=P:problem:kreska pseudotaktowa	!
.	.	.	.	.	.	1f	-i
*	*	*	*	*Xcol	*	*custos:a	*
!	!	!	!	!	!	!LO:LB:g=original	!
=111-	=111-	=111-	=111-	=111-	=111-	=111-	=111-
!	!	!	!	!LO:TX:t=P:problem:kreska pseudotaktowa	!	!	!
0A	Pa-	1.c	-tris	0.e	-tris	0a	Pa-
.	.	2B\	.	.	.	.	.
!LO:TX:t=P:problem:kreska pseudotaktowa	!	!	!	!	!	!LO:TX:t=P:problem:kreska pseudotaktowa	!
1AA	-tris	1A	.	.	.	1e	-tris
*	*	*	*	*custos:e	*	*	*
!LO:LB:g=original	!	!	!	!LO:LB:g=original	!	!	!
=112-	=112-	=112-	=112-	=112-	=112-	=112-	=112-
1.C	A-	1G	A-	1.e	A-	1.e	A-
.	.	0c	-men	.	.	.	.
2D/	.	.	.	2d\	.	2f\	.
!	!	!	!	!LO:TX:t=P:problem:kreska pseudotaktowa	!	!	!
2E/	.	.	.	1c	.	1g	.
!LO:TX:t=P:problem:kreska pseudotaktowa	!	!	!	!	!	!	!
2C/	.	.	.	.	.	.	.
*custos:G	*	*	*	*	*	*	*
!LO:LB:g=original	!	!	!	!	!	!	!
=113-	=113-	=113-	=113-	=113-	=113-	=113-	=113-
!	!	!	!	!	!	!LO:TX:t=P:problem:kreska pseudotaktowa	!
0G	.	2d\	A-	2B\	.	0.g	-men
.	.	2c\	.	2A/	.	.	.
.	.	2B\	.	2B\	.	.	.
.	.	2A/	.	2c\	.	.	.
!LO:TX:t=P:problem:kreska pseudotaktowa	!	!	!	!LO:TX:t=P:problem:kreska pseudotaktowa	!	!	!
1G	-men	1G	.	1d	.	.	.
=114-	=114-	=114-	=114-	=114-	=114-	=114-	=114-
!	!	!LO:TX:t=P:problem:kreska pseudotaktowa	!	!LO:TX:t=P:problem:kreska pseudotaktowa	!	!	!
1.D	A-	0.A	-men	0.d	-men.	0.f	A-
2E\	.	.	.	.	.	.	.
2F\	.	.	.	.	.	.	.
!LO:TX:t=P:problem:kreska pseudotaktowa	!	!	!	!	!	!	!
2D/	.	.	.	.	.	.	.
=115-	=115-	=115-	=115-	=115-	=115-	=115-	=115-
*	*	*	*	*	*	*col	*
0.A	.	2A\	A-	1.e	A-	1e	.
.	.	2B\	.	.	.	.	.
.	.	2c\	.	.	.	0a	.
.	.	2d\	.	2d\	.	.	.
!	!	!LO:TX:t=P:problem:kreska pseudotaktowa	!	!	!	!	!
.	.	1e	.	1.c	.	.	.
*	*	*custos:e	*	*	*	*Xcol	*
!	!	!LO:LB:g=original	!	!	!	!	!
=116-	=116-	=116-	=116-	=116-	=116-	=116-	=116-
1E	-men	1e	-men	.	.	0.g	-men
.	.	.	.	2d\	.	.	.
2C/	A-	2E/	A-	0e	.	.	.
2D/	.	2F/	.	.	.	.	.
2E\	.	2G/	.	.	.	.	.
!LO:TX:t=P:problem:kreska pseudotaktowa	!	!LO:TX:t=P:problem:kreska pseudotaktowa	!	!	!	!	!
2C/	.	2A/	.	.	.	.	.
=117-	=117-	=117-	=117-	=117-	=117-	=117-	=117-
0.G	.	1.B	.	0.d	-men.	0.g	A-
.	.	2c\	.	.	.	.	.
.	.	1d	.	.	.	.	.
=118-	=118-	=118-	=118-	=118-	=118-	=118-	=118-
*M2/1	*	*M2/1	*	*M2/1	*	*M2/1	*
*met(C|)	*	*met(C|)	*	*met(C|)	*	*met(C|)	*
1C	-men	1c	-men	2e\	A-	2e\	-men
*	*	*	*	*	*	*	*ij
!	!	!	!	!LO:TX:t=P:problem:kreska pseudotaktowa:między nutą a kropką	!	!LO:TX:t=P:problem:kreska pseudotaktowa	!
.	.	.	.	2.c\	.	2g\	A-
2.FF/	A-	1r	.	.	.	2f\	-men
*	*	*	*	*	*	*	*Xij
.	.	.	.	4A/	.	.	.
.	.	.	.	1d\	.	1a\	A-
4GG/	.	.	.	.	.	.	.
=119-	=119-	=119-	=119-	=119-	=119-	=119-	=119-
0AA	.	0A	A-	.	.	.	.
.	.	.	.	4c\	.	4g\	.
.	.	.	.	4B\	.	4f\	.
!	!	!	!	!LO:TX:b:t=P:problem:# below	!	!	!
.	.	.	.	1c#X	.	4e\	.
.	.	.	.	.	.	4d\	.
.	.	.	.	.	.	2e\	.
=120-	=120-	=120-	=120-	=120-	=120-	=120-	=120-
!	!	!	!	!	!	!LO:TX:b:t=P:problem:# below	!
0Dl	-men.	0Al	-men.	0dl	-men	0f#Xl	-men
==	==	==	==	==	==	==	==
*-	*-	*-	*-	*-	*-	*-	*-
!!!system-decoration: [(*)]
!!!RDF**kern: < = below
!!!RDF**kern: l = terminal long
!!!AIN: 1 alto 1 bass 1 soprn 1 tenor
!!!ENC: Berenika Jozajtis
!!!END: 2022-01-12
!!!ENC: Andrzej Kubiczek
!!!END: 2022-01-21
